X: 171
T:Ecce tu pulchra es
N: Derived from Jos1406-Ecce_tu_pulchra_es.krn
C: Josquin des Prez
%%abc-version 2.0
%%abcx-abcm2ps-target-version 5.9.1 (29 Sep 2008)
%%abc-creator hum2abc beta
%%abcx-conversion-date 2019/02/12 16:15:46
%%abc-edited-by Jesse Rodin
%%abc-edited-by Jesse Rodin; Victoria Chang 2011/05/17
%%abcx-initial-encoding-date 2011/05/17/
%%humdrum-veritas 3767528802
%%humdrum-veritas-data 883275457
%%linebreak <none>
%%barnumbers 0
L: 1/4
M: 2/1
Q: 1/2=120
%%staves [1 2 3 4]
V: 1 clef=treble
V: 2 clef=treble
V: 3 clef=treble-8
V: 4 clef=bass
K: C
[V:1] z8 | 
[V:2] D8 | 
[V:3] z8 | 
[V:4] D,4D,3E, | 
[V:1] z8 | 
[V:2] D4B,4 | 
[V:3] z8 | 
[V:4] F,2G,3F,E,D, | 
[V:1] z8 | 
[V:2] C4D4 | 
[V:3] z8 | 
[V:4] E,2F,4G,2- | 
[V:1] z8 | 
[V:2] E2F4ED | 
[V:3] z8 | 
[V:4] G,2F,E,D,2A,2- | 
[V:1] z8 | 
[V:2] C2D4^C2 | 
[V:3] z8 | 
[V:4] A,2G,F,E,4 | 
[V:1] z2f4f2- | 
[V:2] D4z4 | 
[V:3] z4a4 | 
[V:4] D,4z2A,2 | 
[V:1] f2e2d4 | 
[V:2] z8 | 
[V:3] g4f4 | 
[V:4] B,2C2D2CB, | 
[V:1] c3de2f2- | 
[V:2] z8 | 
[V:3] e3fg2a2 | 
[V:4] A,2G,F,E,2D,2 | 
[V:1] fed4^c2 | 
[V:2] z8 | 
[V:3] f2g2e4 | 
[V:4] D2G,2A,4 | 
[V:1] d4z4 | 
[V:2] A4A4 | 
[V:3] d4z4 | 
[V:4] z4D4 | 
[V:1] z8 | 
[V:2] B2d3cBA | 
[V:3] z8 | 
[V:4] D4B,4 | 
[V:1] z8 | 
[V:2] G2A4B2 | 
[V:3] z8 | 
[V:4] C4D4 | 
[V:1] z8 | 
[V:2] G2A4GF | 
[V:3] z8 | 
[V:4] E2F4ED | 
[V:1] z8 | 
[V:2] E2D2E4 | 
[V:3] z8 | 
[V:4] C2D4^C2 | 
[V:1] z2f4ed | 
[V:2] D4z2F2- | 
[V:3] z4a4 | 
[V:4] D4z4 | 
[V:1] c2f4e2 | 
[V:2] F2EDC2C2 | 
[V:3] a4g4 | 
[V:4] z8 | 
[V:1] d4c3d | 
[V:2] D4A,4 | 
[V:3] f4e3f | 
[V:4] z8 | 
[V:1] e2f3ed2- | 
[V:2] z8 | 
[V:3] g2a2f2g2 | 
[V:4] z8 | 
[V:1] d2^c2d4 | 
[V:2] z4A4- | 
[V:3] e4d4 | 
[V:4] z8 | 
[V:1] d8 | 
[V:2] A4A4 | 
[V:3] z4f4 | 
[V:4] D4D4 | 
[V:1] d4d4 | 
[V:2] _B4A2F2 | 
[V:3] g4a4 | 
[V:4] G,4D4- | 
[V:1] f4f4 | 
[V:2] A4B4 | 
[V:3] f4f4 | 
[V:4] D4D4 | 
[V:1] e8 | 
[V:2] c8 | 
[V:3] g8 | 
[V:4] C8 | 
[V:1] e4d4 | 
[V:2] c4B4 | 
[V:3] g4g4 | 
[V:4] C4G,4 | 
[V:1] c4B4 | 
[V:2] A4G4 | 
[V:3] e4e3d | 
[V:4] A,4E,4 | 
[V:1] A2d2c2B2- | 
[V:2] F2D2z2G2- | 
[V:3] c2B2A2d2- | 
[V:4] F,2G,2A,2G,2- | 
[V:1] B2A4^G2 | 
[V:2] G2F2E3C | 
[V:3] d2c2B4 | 
[V:4] G,2A,2E,4 | 
[V:1] A8- | 
[V:2] C3DE2F2- | 
[V:3] A8 | 
[V:4] F,4z2D,2- | 
[V:1] A8 | 
[V:2] F2EDC4 | 
[V:3] z4A4 | 
[V:4] D,2E,2F,2F,2 | 
[V:1] z8 | 
[V:2] z4E4 | 
[V:3] B2B2c4 | 
[V:4] G,4E,2E,2 | 
[V:1] A4B2B2 | 
[V:2] F2F2G4 | 
[V:3] d4B2B2 | 
[V:4] D,4z4 | 
[V:1] c4d4 | 
[V:2] A4F4 | 
[V:3] A4z4 | 
[V:4] z8 | 
[V:1] B2B2A4 | 
[V:2] G4A4 | 
[V:3] z8 | 
[V:4] z8 | 
[V:1] z8 | 
[V:2] z8 | 
[V:3] z4e4 | 
[V:4] A,4A,2A,2 | 
[V:1] z8 | 
[V:2] z8 | 
[V:3] e2e2g4 | 
[V:4] C4_B,4 | 
[V:1] z8 | 
[V:2] z8 | 
[V:3] f4e4 | 
[V:4] A,4G,4 | 
[V:1] z8 | 
[V:2] z8 | 
[V:3] d3ef2g2- | 
[V:4] G,2_B,4A,G, | 
[V:1] z8 | 
[V:2] z8 | 
[V:3] g2f4e2 | 
[V:4] _B,2A,2G,4 | 
[V:1] z4c4 | 
[V:2] z4A4 | 
[V:3] f4z4 | 
[V:4] F,4z2F,2- | 
[V:1] c4d2d2 | 
[V:2] A4_B2B2 | 
[V:3] z8 | 
[V:4] F,2A,2G,2G,2 | 
[V:1] c2f4e2 | 
[V:2] A4G4 | 
[V:3] z8 | 
[V:4] A,2F,2C4 | 
[V:1] d2f4e2- | 
[V:2] F4A4 | 
[V:3] z2d4A2 | 
[V:4] z8 | 
[V:1] e2d4^c2 | 
[V:2] G2F2E4 | 
[V:3] c2d2A4 | 
[V:4] z8 | 
[V:1] d4z4 | 
[V:2] DEFGA2B2 | 
[V:3] a4z4 | 
[V:4] z4D2D2 | 
[V:1] z8 | 
[V:2] A2d4^c2 | 
[V:3] z8 | 
[V:4] F4E4 | 
[V:1] z8 | 
[V:2] d4z4 | 
[V:3] d2d2f4 | 
[V:4] D2F4ED | 
[V:1] z4d2d2 | 
[V:2] z8 | 
[V:3] e4d2f2- | 
[V:4] C2DCD2D,2- | 
[V:1] f4e4 | 
[V:2] z8 | 
[V:3] f2ed^c4 | 
[V:4] D,E,F,G,A,2E,2 | 
[V:1] d2f4ed | 
[V:2] D2D2F4 | 
[V:3] d4z4 | 
[V:4] F,2D,3E,F,G, | 
[V:1] c2dcd2A2- | 
[V:2] E4D2F2- | 
[V:3] z8 | 
[V:4] A,4z4 | 
[V:1] A2GFE4 | 
[V:2] F2EDC2DC | 
[V:3] z8 | 
[V:4] z4A,4 | 
[V:1] D4z4 | 
[V:2] D4z4 | 
[V:3] z4a4 | 
[V:4] F,2G,2D,2F,2 | 
[V:1] z4A4 | 
[V:2] z8 | 
[V:3] g2g2f2f2 | 
[V:4] E,2E,2D,4 | 
[V:1] G2G2F2F2 | 
[V:2] z8 | 
[V:3] e2e2d4 | 
[V:4] z4z2D2- | 
[V:1] E2E2D2f2- | 
[V:2] z4A4 | 
[V:3] A4z4 | 
[V:4] D2C2D2A,2 | 
[V:1] f2e4d2- | 
[V:2] G2G2F2F2 | 
[V:3] z8 | 
[V:4] C4D4 | 
[V:1] d2^c2d4 | 
[V:2] E2E2D4 | 
[V:3] a8 | 
[V:4] A,4D,4 | 
[V:1] z8 | 
[V:2] z2F2F2ED | 
[V:3] a4a4- | 
[V:4] z4D,4 | 
[V:1] z8 | 
[V:2] C2D4^C2 | 
[V:3] a4g4 | 
[V:4] F,4E,2E,2 | 
[V:1] A4c4 | 
[V:2] D4z4 | 
[V:3] f8 | 
[V:4] D,4z4 | 
[V:1] B4A4 | 
[V:2] d2d2c2BA | 
[V:3] d4f4 | 
[V:4] z4A,4 | 
[V:1] z4d2d2 | 
[V:2] G2A4^G2 | 
[V:3] e4d4 | 
[V:4] C4B,4 | 
[V:1] c2BAG2A2- | 
[V:2] A4E4 | 
[V:3] z8 | 
[V:4] A,2C4B,A, | 
[V:1] A2^G2A2c2 | 
[V:2] z8 | 
[V:3] d4e2f2- | 
[V:4] B,4A,4 | 
[V:1] d2e4f2- | 
[V:2] z8 | 
[V:3] f2g2a4- | 
[V:4] z4A,4 | 
[V:1] f2edd4 | 
[V:2] z8 | 
[V:3] a2gfg4 | 
[V:4] _B,8 | 
[V:1] c4z4 | 
[V:2] C4D2F2- | 
[V:3] a8 | 
[V:4] A,4F,4 | 
[V:1] z8 | 
[V:2] F2EDE4 | 
[V:3] _b8 | 
[V:4] G,4G,4 | 
[V:1] c4d2f2- | 
[V:2] F8 | 
[V:3] a4f4 | 
[V:4] F,4F,4 | 
[V:1] f2ede4 | 
[V:2] z8 | 
[V:3] g4g4 | 
[V:4] C4C4 | 
[V:1] f8 | 
[V:2] c4c4 | 
[V:3] f4z4 | 
[V:4] F,8 | 
[V:1] z8 | 
[V:2] A4c4 | 
[V:3] f4f4 | 
[V:4] z8 | 
[V:1] z8 | 
[V:2] B3GA2d2- | 
[V:3] d4f4 | 
[V:4] z8 | 
[V:1] z8 | 
[V:2] d2c4B2 | 
[V:3] e2c2d4 | 
[V:4] z8 | 
[V:1] z8 | 
[V:2] c8 | 
[V:3] c4c4 | 
[V:4] z2F,4A,2- | 
[V:1] z8 | 
[V:2] z8 | 
[V:3] e4g2g2 | 
[V:4] A,2C2B,2C2- | 
[V:1] z8 | 
[V:2] z8 | 
[V:3] e2g4fe | 
[V:4] C2B,A,G,2C2- | 
[V:1] z8 | 
[V:2] z4G4 | 
[V:3] d4c4 | 
[V:4] C2B,2C4 | 
[V:1] e4e4 | 
[V:2] G4A4 | 
[V:3] z8 | 
[V:4] z8 | 
[V:1] f4d4 | 
[V:2] A4B4 | 
[V:3] z8 | 
[V:4] z8 | 
[V:1] e4c4 | 
[V:2] G2A3GFE | 
[V:3] z8 | 
[V:4] z8 | 
[V:1] d4c2A2 | 
[V:2] D2F2E2A2- | 
[V:3] z8 | 
[V:4] z8 | 
[V:1] B4A4 | 
[V:2] A2^G2A4 | 
[V:3] z8 | 
[V:4] z8 | 
[V:1] z8 | 
[V:2] z8 | 
[V:3] f2f2e4 | 
[V:4] z2D4C2 | 
[V:1] z8 | 
[V:2] z8 | 
[V:3] d4d2f2- | 
[V:4] D2_B,4A,G, | 
[V:1] z8 | 
[V:2] z8 | 
[V:3] f2edf2e2- | 
[V:4] _B,4F,2A,2- | 
[V:1] z8 | 
[V:2] z8 | 
[V:3] e2d4^c2 | 
[V:4] A,2G,F,E,4 | 
[V:1] f6f2 | 
[V:2] A6A2 | 
[V:3] d4z4 | 
[V:4] D,4D2D2 | 
[V:1] e4d2e2- | 
[V:2] c4B2c2- | 
[V:3] z8 | 
[V:4] C2A,2B,2A,2 | 
[V:1] e2dcB4 | 
[V:2] c2BAG4 | 
[V:3] e4e4 | 
[V:4] z2A,2E,4 | 
[V:1] A4d4 | 
[V:2] A4z4 | 
[V:3] c2f4ed | 
[V:4] F,4D,4 | 
[V:1] c4d4 | 
[V:2] A4A4- | 
[V:3] e4d2f2- | 
[V:4] A,4D,4- | 
[V:1] f8 | 
[V:2] A2G2A2B2 | 
[V:3] f2e2d4 | 
[V:4] D,2E,2F,2G,2 | 
[V:1] e4d4 | 
[V:2] c2A4G2 | 
[V:3] c4d4 | 
[V:4] A,4_B,4 | 
[V:1] !fermata!^c8- | 
[V:2] !fermata!A8- | 
[V:3] !fermata!e8- | 
[V:4] !fermata!A,8- | 
[V:1] c8 | 
[V:2] A8 | 
[V:3] e8 | 
[V:4] A,8 | 
[V:1] d8 |]  
[V:2] A8 |]  
[V:3] d8 |]  
[V:4] D,8 |]  



